icons/outline/adjustments-spark.svg

<!--
tags: [equalizer, sliders, controls, settings, filter]
category: System
unicode: "ffbe"
version: "3.13"
-->
<svg
  xmlns="http://www.w3.org/2000/svg"
  width="24"
  height="24"
  viewBox="0 0 24 24"
  fill="none"
  stroke="currentColor"
  stroke-width="2"
  stroke-linecap="round"
  stroke-linejoin="round"
>
  <path d="M4 10a2 2 0 1 0 4 0a2 2 0 0 0 -4 0m2 -6v4m0 4v8m7.879 -4.688a2 2 0 1 0 -2.26 2.652m.381 -13.964v10m4 -7a2 2 0 1 0 4 0a2 2 0 0 0 -4 0m2 -3v1m0 4v2.5m1 11a4.75 4.75 0 0 1 3.5 -3.5a4.75 4.75 0 0 1 -3.5 -3.5a4.75 4.75 0 0 1 -3.5 3.5a4.75 4.75 0 0 1 3.5 3.5" />
</svg>

<!--
tags: [equalizer, sliders, controls, settings, filter]
category: System
unicode: "ffbe"
version: "3.13"
-->
<svg
  xmlns="http://www.w3.org/2000/svg"
  width="24"
  height="24"
  viewBox="0 0 24 24"
  fill="none"
  stroke="currentColor"
  stroke-width="2"
  stroke-linecap="round"
  stroke-linejoin="round"
>
    <path d="M4 10a2 2 0 1 0 4 0a2 2 0 0 0 -4 0M6 4v4M6 12v8M13.879 15.312a2 2 0 1 0 -2.26 2.652M12 4v10M16 7a2 2 0 1 0 4 0a2 2 0 0 0 -4 0M18 4v1M18 9v2.5M19 22.5a4.75 4.75 0 0 1 3.5 -3.5a4.75 4.75 0 0 1 -3.5 -3.5a4.75 4.75 0 0 1 -3.5 3.5a4.75 4.75 0 0 1 3.5 3.5" />
</svg>
